X:176
T:Man from Dungannon* (reel), The
B:CRE2.242 (gan ainm)
F:file ID: cre.2/176man_dun
S:Jim McGuirk (Tyrone)
Q:180
L:1/8
M:4/4
R:reel
K:G
"A dorian"
gf|eA~A2 B2 GB|d2 ef gfed|eA~A2 B2 GB|d2 cA B2 gf|
eA~A2 B2 GB|d2 ef g2 fg|afge fded|cABG A2:|
fg|a2~a2 fadg|fa~a2 fa d2|eg~g2 egcg|eg~g2 egcg|
fa~a2 fadg|fage f2 (3efg|afge fded|cABG A2:|

%%%

